X: 40631
T: Toormore, The
R: slide
M: 12/8
K: Adorian
|:A2 G|
E2 A AAA c2 d e2 c|d3- d2 [Ad] B2 d g2 [Ad]|
E2 A AAA c2 d e2 c|1 d2 c A2 G A3-:|2 d2 c A2 G A2 B c2 d:|
|:ege d2 [Be] c2 [Ae] B2 c|AAA [G2d2] [Ac] A2 G E2 [Ac]|
E2 A AAA c2 d e2 c|1 d2 c A2 G A2 B c2 d:|2 d2 c A2 G A3-||

